Sources/FrostedUI/Resources/Icons.xcassets/compass16.imageset/compass-16.svg

<svg width="16" height="16" viewBox="0 0 16 16" fill="none" xmlns="http://www.w3.org/2000/svg" data-fui-icon="true">
  <g clip-path="url(#clip0_5548_18)">
    <path
      d="M8 0.583008C12.0958 0.583184 15.4158 3.90416 15.416 8C15.4158 12.0959 12.0959 15.4158 8 15.416C3.90416 15.4158 0.583184 12.0958 0.583008 8C0.583206 3.90418 3.90418 0.583206 8 0.583008ZM8 2.08301C4.73261 2.08321 2.08321 4.73261 2.08301 8C2.08318 11.2674 4.73259 13.9158 8 13.916C11.2674 13.9158 13.9158 11.2674 13.916 8C13.9158 4.73259 11.2674 2.08318 8 2.08301ZM9.40527 4.59668C10.6545 4.12302 11.8778 5.34551 11.4043 6.59473L10.5205 8.9248C10.2414 9.66042 9.66042 10.2414 8.9248 10.5205L6.59473 11.4043C5.34551 11.8778 4.12302 10.6545 4.59668 9.40527L5.47949 7.07617C5.7586 6.34033 6.34033 5.7586 7.07617 5.47949L9.40527 4.59668ZM9.9375 5.99902L7.60742 6.88281C7.27334 7.00969 7.00969 7.27334 6.88281 7.60742L5.99902 9.9375C5.99517 9.94772 5.99436 9.95416 5.99414 9.95703C5.99396 9.95969 5.99362 9.96263 5.99414 9.96484C5.99553 9.97024 5.99998 9.98034 6.00977 9.99023C6.01994 10.0002 6.03084 10.0046 6.03613 10.0059C6.03817 10.0063 6.04051 10.007 6.04297 10.0068C6.0458 10.0066 6.05292 10.006 6.06348 10.002L8.39258 9.11816C8.72689 8.99129 8.99129 8.72689 9.11816 8.39258L10.002 6.06348C10.006 6.05292 10.0066 6.0458 10.0068 6.04297C10.007 6.04051 10.0063 6.03817 10.0059 6.03613C10.0046 6.03084 10.0002 6.01994 9.99023 6.00977C9.98034 5.99998 9.97024 5.99553 9.96484 5.99414C9.96263 5.99362 9.95969 5.99396 9.95703 5.99414C9.95416 5.99436 9.94772 5.99517 9.9375 5.99902Z"
      fill="currentColor"
    />
  </g>
  <defs>
    <clipPath id="clip0_5548_18"><path fill="currentColor" d="M0 0H16V16H0z" /></clipPath>
  </defs>
</svg>

<svg xmlns="http://www.w3.org/2000/svg" width="16" height="16" fill="none" data-fui-icon="true" viewBox="0 0 16 16"><g clip-path="url(#a)"><path fill="currentColor" d="M8 .583a7.417 7.417 0 1 1-.002 14.834A7.417 7.417 0 0 1 8 .583m0 1.5a5.917 5.917 0 1 0 0 11.832A5.917 5.917 0 0 0 8 2.083m1.405 2.514c1.25-.474 2.473.749 2 1.998l-.884 2.33a2.75 2.75 0 0 1-1.596 1.595l-2.33.884c-1.25.474-2.472-.75-1.998-1.999l.882-2.329c.28-.736.861-1.317 1.597-1.597zm.533 1.402-2.33.884a1.25 1.25 0 0 0-.725.724l-.884 2.33-.005.02v.008a.1.1 0 0 0 .016.025q.016.015.026.016h.007q.005.001.02-.004l2.33-.884c.334-.127.598-.391.725-.725l.884-2.33.005-.02-.001-.007a.1.1 0 0 0-.016-.026.1.1 0 0 0-.025-.016h-.008z"/></g><defs><clipPath id="a"><path fill="currentColor" d="M0 0h16v16H0z"/></clipPath></defs></svg>
